;FLAVOR:Marlin
;TIME:7640
;Filament used: 5.23789m
;Layer height: 0.15
;MINX:55.251
;MINY:38.754
;MINZ:0.2
;MAXX:169.79
;MAXY:158.528
;MAXZ:8
;Generated with Cura_SteamEngine 4.11.0
M82 ;absolute extrusion mode
G21 ; set units to millimeters
G90 ; use absolute positioning
M82 ; absolute extrusion mode
M104 S200 ; set extruder temp
M140 S60 ; set bed temp
M190 S60 ; wait for bed temp
M109 S200 ; wait for extruder temp
G28 W ; home all without mesh bed level
G80 ; mesh bed leveling
G92 E0.0 ; reset extruder distance position
G1 Y-3.0 F1000.0 ; go outside print area
G1 X60.0 E9.0 F1000.0 ; intro line
G1 X100.0 E21.5 F1000.0 ; intro line
G92 E0.0 ; reset extruder distance position
G92 E0
G92 E0
G1 F2100 E-0.8
;LAYER_COUNT:53
;LAYER:0
M107
G0 F3600 X147.353 Y74.066 Z0.2
;TYPE:SKIRT
G1 F2100 E0
G1 F1800 X147.353 Y79.048 E0.1657
G1 X147.598 Y79.111 E0.17412
G1 X148.338 Y79.385 E0.20036
G1 X149.047 Y79.733 E0.22663
G1 X149.718 Y80.151 E0.25292
G1 X150.342 Y80.634 E0.27917
G1 X150.779 Y81.039 E0.29899
G1 X150.896 Y81.156 E0.30449
G1 X151.306 Y81.61 E0.32484
G1 X151.306 Y71.51 E0.66076
G1 X150.897 Y71.952 E0.68079
G1 X150.78 Y72.069 E0.6863
G1 X150.194 Y72.599 E0.71258
G1 X149.558 Y73.066 E0.73882
G1 X148.878 Y73.467 E0.76508
G1 X148.16 Y73.797 E0.79136
G1 X147.413 Y74.052 E0.81761
G1 X147.353 Y74.066 E0.81966
G0 F3600 X147.206 Y73.695
G1 F1800 X146.953 Y73.75 E0.82827
G1 X146.953 Y79.356 E1.01473
G1 X147.535 Y79.511 E1.03476
G1 X148.254 Y79.785 E1.06035
G1 X148.94 Y80.132 E1.08592
G1 X149.587 Y80.548 E1.1115
G1 X150.187 Y81.029 E1.13708
G1 X150.614 Y81.438 E1.15675
G1 X151.128 Y82.01 E1.18232
G1 X151.581 Y82.632 E1.20792
G1 X151.706 Y82.848 E1.21622
G1 X151.706 Y70.265 E1.63473
G1 X151.388 Y70.76 E1.6543
G1 X150.907 Y71.36 E1.67988
G1 X150.498 Y71.787 E1.69954
G1 X149.926 Y72.301 E1.72512
G1 X149.304 Y72.754 E1.75071
G1 X148.639 Y73.14 E1.77629
G1 X147.937 Y73.455 E1.80188
G1 X147.206 Y73.695 E1.82747
G0 F3600 X147.002 Y73.335
G1 F1800 X146.553 Y73.425 E1.8427
G1 X146.553 Y79.681 E2.05077
G1 X146.749 Y79.713 E2.05738
G1 X147.471 Y79.911 E2.08228
G1 X148.167 Y80.184 E2.10715
G1 X148.83 Y80.531 E2.13204
G1 X149.453 Y80.946 E2.15693
G1 X150.214 Y81.604 E2.19039
G1 X150.331 Y81.721 E2.1959
G1 X150.831 Y82.278 E2.22079
G1 X151.268 Y82.884 E2.24564
G1 X151.639 Y83.534 E2.27053
G1 X151.938 Y84.22 E2.29542
G1 X152.106 Y84.757 E2.31414
G1 X152.106 Y68.348 E2.8599
G1 X152.025 Y68.644 E2.87011
G1 X151.752 Y69.34 E2.89498
G1 X151.405 Y70.003 E2.91987
G1 X150.99 Y70.626 E2.94476
G1 X150.332 Y71.387 E2.97822
G1 X150.215 Y71.504 E2.98373
G1 X149.658 Y72.004 E3.00862
G1 X149.052 Y72.441 E3.03347
G1 X148.402 Y72.812 E3.05836
G1 X147.716 Y73.111 E3.08325
G1 X147.002 Y73.335 E3.10814
G0 F3600 X146.801 Y72.973
G1 F1800 X146.153 Y73.091 E3.13005
G1 X146.153 Y80.021 E3.36054
G1 X146.706 Y80.113 E3.37919
G1 X147.405 Y80.311 E3.40335
G1 X148.078 Y80.584 E3.42751
G1 X148.717 Y80.929 E3.45166
G1 X149.314 Y81.343 E3.47582
G1 X149.931 Y81.887 E3.50318
G1 X150.048 Y82.004 E3.50869
G1 X150.532 Y82.545 E3.53283
G1 X150.955 Y83.136 E3.557
G1 X151.309 Y83.77 E3.58115
G1 X151.592 Y84.439 E3.60531
G1 X151.8 Y85.135 E3.62947
G1 X151.93 Y85.85 E3.65365
G1 X151.981 Y86.671 E3.681
G1 X151.981 Y106.437 E4.33842
G1 X151.941 Y107.162 E4.36258
G1 X151.822 Y107.879 E4.38675
G1 X151.624 Y108.578 E4.41091
G1 X151.351 Y109.251 E4.43507
G1 X151.006 Y109.89 E4.45922
G1 X150.592 Y110.487 E4.48338
G1 X150.048 Y111.104 E4.51074
G1 X149.931 Y111.221 E4.51625
G1 X149.39 Y111.705 E4.54039
G1 X148.799 Y112.128 E4.56456
G1 X148.165 Y112.482 E4.58871
G1 X147.496 Y112.765 E4.61287
G1 X146.8 Y112.973 E4.63704
G1 X146.153 Y113.091 E4.65891
G1 X146.153 Y120.021 E4.8894
G1 X146.706 Y120.113 E4.90805
G1 X147.405 Y120.311 E4.93221
G1 X148.078 Y120.584 E4.95637
G1 X148.717 Y120.929 E4.98052
G1 X149.314 Y121.343 E5.00468
G1 X149.931 Y121.887 E5.03204
G1 X150.048 Y122.004 E5.03755
G1 X150.532 Y122.545 E5.06169
G1 X150.955 Y123.136 E5.08586
G1 X151.309 Y123.77 E5.11001
G1 X151.592 Y124.439 E5.13417
G1 X151.8 Y125.135 E5.15833
G1 X151.93 Y125.85 E5.18251
G1 X151.981 Y126.671 E5.20986
G1 X151.982 Y146.437 E5.86728
G1 X151.942 Y147.162 E5.89143
G1 X151.823 Y147.878 E5.91558
G1 X151.625 Y148.577 E5.93974
G1 X151.352 Y149.251 E5.96393
G1 X151.007 Y149.89 E5.98808
G1 X150.593 Y150.487 E6.01224
G1 X150.049 Y151.104 E6.0396
G1 X149.932 Y151.221 E6.0451
G1 X149.391 Y151.705 E6.06925
G1 X148.8 Y152.128 E6.09342
G1 X148.166 Y152.482 E6.11757
G1 X147.497 Y152.765 E6.14173
G1 X146.801 Y152.973 E6.16589
G1 X146.086 Y153.103 E6.19006
G1 X145.265 Y153.154 E6.21742
G1 X114.67 Y153.154 E7.23502
G1 X113.945 Y153.114 E7.25917
G1 X113.228 Y152.995 E7.28334
G1 X112.529 Y152.797 E7.3075
G1 X111.856 Y152.524 E7.33166
G1 X111.217 Y152.179 E7.35581
G1 X110.62 Y151.765 E7.37998
G1 X110.003 Y151.221 E7.40734
G1 X109.886 Y151.104 E7.41284
G1 X109.402 Y150.563 E7.43698
G1 X108.979 Y149.972 E7.46116
G1 X108.625 Y149.338 E7.48531
G1 X108.342 Y148.669 E7.50947
G1 X108.134 Y147.973 E7.53363
G1 X108.004 Y147.258 E7.5578
G1 X107.953 Y146.437 E7.58516
G1 X107.953 Y107.159 E8.89155
G1 X107.555 Y107.272 E8.90531
G1 X106.846 Y107.432 E8.92948
G1 X106.365 Y107.496 E8.94562
G1 X105.814 Y107.548 E8.96403
G1 X105.21 Y107.577 E8.98414
G1 X104.81 Y107.578 E8.99745
G1 X104.141 Y107.546 E9.01972
G1 X103.598 Y107.492 E9.03787
G1 X102.88 Y107.38 E9.06204
G1 X102.441 Y107.271 E9.07709
G1 X101.936 Y107.127 E9.09455
G1 X101.292 Y106.907 E9.11719
G1 X100.444 Y106.546 E9.14784
G1 X100.479 Y107.117 E9.16687
G1 X100.48 Y126.883 E9.82429
G1 X100.44 Y127.608 E9.84844
G1 X100.321 Y128.324 E9.87258
G1 X100.123 Y129.023 E9.89674
G1 X99.85 Y129.697 E9.92093
G1 X99.505 Y130.336 E9.94508
G1 X99.091 Y130.933 E9.96925
G1 X98.547 Y131.55 E9.99661
G1 X98.43 Y131.667 E10.00211
G1 X97.889 Y132.151 E10.02625
G1 X97.298 Y132.574 E10.05043
G1 X96.664 Y132.928 E10.07458
G1 X95.995 Y133.211 E10.09874
G1 X95.299 Y133.419 E10.1229
G1 X94.651 Y133.537 E10.1448
G1 X94.651 Y146.883 E10.58869
G1 X94.611 Y147.608 E10.61284
G1 X94.492 Y148.325 E10.63702
G1 X94.294 Y149.024 E10.66118
G1 X94.021 Y149.697 E10.68534
G1 X93.676 Y150.336 E10.70949
G1 X93.262 Y150.933 E10.73365
G1 X92.718 Y151.55 E10.76101
G1 X92.601 Y151.667 E10.76652
G1 X92.06 Y152.151 E10.79066
G1 X91.469 Y152.574 E10.81483
G1 X90.835 Y152.928 E10.83898
G1 X90.166 Y153.211 E10.86314
G1 X89.47 Y153.419 E10.8873
G1 X88.755 Y153.549 E10.91148
G1 X87.934 Y153.6 E10.93883
G1 X63.168 Y153.6 E11.76256
G1 X62.443 Y153.56 E11.78671
G1 X61.726 Y153.441 E11.81088
G1 X61.027 Y153.243 E11.83504
G1 X60.354 Y152.97 E11.8592
G1 X59.715 Y152.625 E11.88335
G1 X59.118 Y152.211 E11.90751
G1 X58.501 Y151.667 E11.93487
G1 X58.384 Y151.55 E11.94038
G1 X57.9 Y151.009 E11.96452
G1 X57.477 Y150.418 E11.98869
G1 X57.123 Y149.784 E12.01284
G1 X56.84 Y149.115 E12.037
G1 X56.632 Y148.419 E12.06117
G1 X56.502 Y147.704 E12.08534
G1 X56.451 Y146.883 E12.1127
G1 X56.451 Y47.117 E15.43093
G1 X56.491 Y46.392 E15.45508
G1 X56.61 Y45.675 E15.47925
G1 X56.808 Y44.976 E15.50341
G1 X57.081 Y44.303 E15.52757
G1 X57.426 Y43.664 E15.55172
G1 X57.84 Y43.067 E15.57589
G1 X58.384 Y42.45 E15.60324
G1 X58.501 Y42.333 E15.60875
G1 X59.042 Y41.849 E15.63289
G1 X59.633 Y41.426 E15.65706
G1 X60.267 Y41.072 E15.68122
G1 X60.936 Y40.789 E15.70538
G1 X61.632 Y40.581 E15.72954
G1 X62.347 Y40.451 E15.75371
G1 X63.168 Y40.4 E15.78107
G1 X87.934 Y40.4 E16.60479
G1 X88.659 Y40.44 E16.62894
G1 X89.376 Y40.559 E16.65311
G1 X90.075 Y40.757 E16.67727
G1 X90.748 Y41.03 E16.70143
G1 X91.387 Y41.375 E16.72558
G1 X91.984 Y41.789 E16.74975
G1 X92.601 Y42.333 E16.77711
G1 X92.718 Y42.45 E16.78261
G1 X93.202 Y42.991 E16.80675
G1 X93.625 Y43.582 E16.83093
G1 X93.979 Y44.216 E16.85508
G1 X94.262 Y44.885 E16.87924
G1 X94.47 Y45.581 E16.9034
G1 X94.6 Y46.296 E16.92757
G1 X94.651 Y47.117 E16.95493
G1 X94.651 Y60.467 E17.39895
G1 X95.204 Y60.559 E17.4176
G1 X95.903 Y60.757 E17.44176
G1 X96.576 Y61.03 E17.46592
G1 X97.215 Y61.375 E17.49007
G1 X97.812 Y61.789 E17.51423
G1 X98.429 Y62.333 E17.54159
G1 X98.546 Y62.45 E17.54709
G1 X99.03 Y62.991 E17.57124
G1 X99.453 Y63.582 E17.59541
G1 X99.807 Y64.216 E17.61956
G1 X100.09 Y64.885 E17.64372
G1 X100.298 Y65.581 E17.66788
G1 X100.428 Y66.296 E17.69205
G1 X100.479 Y67.117 E17.71941
G1 X100.48 Y86.883 E18.37683
G1 X100.449 Y87.45 E18.39572
G1 X100.638 Y87.356 E18.40274
G1 X101.306 Y87.07 E18.42691
G1 X101.772 Y86.919 E18.4432
G1 X102.282 Y86.775 E18.46083
G1 X102.867 Y86.639 E18.4808
G1 X103.259 Y86.566 E18.49407
G1 X103.885 Y86.48 E18.51508
G1 X104.427 Y86.432 E18.53318
G1 X105.153 Y86.408 E18.55734
G1 X105.611 Y86.434 E18.5726
G1 X106.146 Y86.483 E18.59047
G1 X106.789 Y86.573 E18.61206
G1 X107.19 Y86.65 E18.62564
G1 X107.748 Y86.783 E18.64472
G1 X107.953 Y86.841 E18.65181
G1 X107.953 Y46.671 E19.98787
G1 X107.993 Y45.946 E20.01202
G1 X108.112 Y45.229 E20.03619
G1 X108.31 Y44.53 E20.06035
G1 X108.583 Y43.857 E20.08451
G1 X108.928 Y43.218 E20.10866
G1 X109.342 Y42.621 E20.13283
G1 X109.886 Y42.004 E20.16018
G1 X110.003 Y41.887 E20.16569
G1 X110.544 Y41.403 E20.18983
G1 X111.135 Y40.98 E20.214
G1 X111.769 Y40.626 E20.23816
G1 X112.438 Y40.343 E20.26232
G1 X113.134 Y40.135 E20.28648
G1 X113.849 Y40.005 E20.31065
G1 X114.67 Y39.954 E20.33801
G1 X145.265 Y39.954 E21.3556
G1 X145.99 Y39.994 E21.37975
G1 X146.707 Y40.113 E21.40392
G1 X147.406 Y40.311 E21.42809
G1 X148.079 Y40.584 E21.45224
G1 X148.718 Y40.929 E21.4764
G1 X149.315 Y41.343 E21.50056
G1 X149.932 Y41.887 E21.52792
G1 X150.049 Y42.004 E21.53342
G1 X150.533 Y42.545 E21.55757
G1 X150.956 Y43.136 E21.58174
G1 X151.31 Y43.77 E21.60589
G1 X151.593 Y44.439 E21.63005
G1 X151.801 Y45.135 E21.65421
G1 X151.931 Y45.85 E21.67838
G1 X151.982 Y46.671 E21.70574
G1 X151.982 Y66.437 E22.36316
G1 X151.942 Y67.162 E22.38731
G1 X151.823 Y67.879 E22.41148
G1 X151.625 Y68.578 E22.43565
G1 X151.352 Y69.251 E22.4598
G1 X151.007 Y69.89 E22.48396
G1 X150.593 Y70.487 E22.50812
G1 X150.049 Y71.104 E22.53548
G1 X149.932 Y71.221 E22.54098
G1 X149.391 Y71.705 E22.56513
G1 X148.8 Y72.128 E22.5893
G1 X148.166 Y72.482 E22.61345
G1 X147.497 Y72.765 E22.63761
G1 X146.801 Y72.973 E22.66177
G0 F3600 X146.602 Y72.608
G1 F1800 X145.907 Y72.721 E22.68519
G1 X145.753 Y72.729 E22.69032
G1 X145.753 Y80.382 E22.94486
G1 X145.967 Y80.394 E22.95199
G1 X146.661 Y80.513 E22.97541
G1 X147.336 Y80.711 E22.9988
G1 X147.985 Y80.983 E23.02221
G1 X148.599 Y81.328 E23.04563
G1 X149.17 Y81.739 E23.06903
G1 X149.648 Y82.17 E23.09044
G1 X149.765 Y82.287 E23.09594
G1 X150.234 Y82.812 E23.11936
G1 X150.64 Y83.387 E23.14277
G1 X150.978 Y84.005 E23.1662
G1 X151.245 Y84.656 E23.1896
G1 X151.435 Y85.334 E23.21302
G1 X151.548 Y86.029 E23.23644
G1 X151.581 Y86.671 E23.25782
G1 X151.581 Y106.437 E23.91524
G1 X151.541 Y107.14 E23.93866
G1 X151.422 Y107.834 E23.96208
G1 X151.224 Y108.509 E23.98548
G1 X150.952 Y109.158 E24.00888
G1 X150.607 Y109.772 E24.03231
G1 X150.196 Y110.343 E24.0557
G1 X149.765 Y110.821 E24.07711
G1 X149.648 Y110.938 E24.08262
G1 X149.123 Y111.407 E24.10603
G1 X148.548 Y111.813 E24.12944
G1 X147.93 Y112.151 E24.15287
G1 X147.279 Y112.418 E24.17627
G1 X146.601 Y112.608 E24.19969
G1 X145.906 Y112.721 E24.22311
G1 X145.753 Y112.729 E24.22821
G1 X145.753 Y120.382 E24.48275
G1 X145.967 Y120.394 E24.48987
G1 X146.661 Y120.513 E24.51329
G1 X147.336 Y120.711 E24.53669
G1 X147.985 Y120.983 E24.5601
G1 X148.599 Y121.328 E24.58352
G1 X149.17 Y121.739 E24.60692
G1 X149.648 Y122.17 E24.62833
G1 X149.765 Y122.287 E24.63383
G1 X150.234 Y122.812 E24.65724
G1 X150.64 Y123.387 E24.68066
G1 X150.978 Y124.005 E24.70408
G1 X151.245 Y124.656 E24.72749
G1 X151.435 Y125.334 E24.75091
G1 X151.548 Y126.029 E24.77433
G1 X151.581 Y126.671 E24.79571
G1 X151.582 Y146.437 E25.45313
G1 X151.542 Y147.14 E25.47655
G1 X151.423 Y147.833 E25.49993
G1 X151.225 Y148.509 E25.52336
G1 X150.953 Y149.158 E25.54677
G1 X150.609 Y149.772 E25.57017
G1 X150.197 Y150.343 E25.59359
G1 X149.766 Y150.821 E25.615
G1 X149.649 Y150.938 E25.6205
G1 X149.124 Y151.407 E25.64392
G1 X148.549 Y151.813 E25.66733
G1 X147.931 Y152.151 E25.69076
G1 X147.28 Y152.418 E25.71416
G1 X146.602 Y152.608 E25.73758
G1 X145.907 Y152.721 E25.761
G1 X145.265 Y152.754 E25.78238
G1 X114.67 Y152.754 E26.79997
G1 X113.967 Y152.714 E26.82339
G1 X113.273 Y152.595 E26.84681
G1 X112.598 Y152.397 E26.87021
G1 X111.949 Y152.125 E26.89361
G1 X111.335 Y151.78 E26.91704
G1 X110.764 Y151.369 E26.94044
G1 X110.286 Y150.938 E26.96185
G1 X110.169 Y150.821 E26.96735
G1 X109.7 Y150.296 E26.99076
G1 X109.294 Y149.721 E27.01418
G1 X108.956 Y149.103 E27.0376
G1 X108.689 Y148.452 E27.06101
G1 X108.499 Y147.774 E27.08443
G1 X108.386 Y147.079 E27.10784
G1 X108.353 Y146.437 E27.12923
G1 X108.353 Y106.612 E28.45381
G1 X107.95 Y106.743 E28.4679
G1 X107.445 Y106.887 E28.48537
G1 X106.758 Y107.042 E28.50879
G1 X106.328 Y107.098 E28.52322
G1 X105.777 Y107.15 E28.54163
G1 X105.209 Y107.177 E28.56054
G1 X104.809 Y107.178 E28.57384
G1 X104.18 Y107.148 E28.59479
G1 X103.637 Y107.094 E28.61294
G1 X102.942 Y106.984 E28.63634
G1 X102.551 Y106.886 E28.64975
G1 X102.046 Y106.742 E28.66721
G1 X101.441 Y106.536 E28.68847
G1 X100.577 Y106.168 E28.7197
G1 X99.942 Y105.838 E28.74351
G1 X100.046 Y106.475 E28.76497
G1 X100.079 Y107.117 E28.78635
G1 X100.08 Y126.883 E29.44377
G1 X100.04 Y127.586 E29.46719
G1 X99.921 Y128.279 E29.49058
G1 X99.723 Y128.955 E29.51401
G1 X99.451 Y129.604 E29.53741
G1 X99.107 Y130.218 E29.56082
G1 X98.695 Y130.789 E29.58424
G1 X98.264 Y131.267 E29.60565
G1 X98.147 Y131.384 E29.61115
G1 X97.622 Y131.853 E29.63457
G1 X97.047 Y132.259 E29.65798
G1 X96.429 Y132.597 E29.68141
G1 X95.778 Y132.864 E29.70481
G1 X95.1 Y133.054 E29.72823
G1 X94.405 Y133.167 E29.75165
G1 X94.251 Y133.175 E29.75678
G1 X94.251 Y146.883 E30.21271
G1 X94.211 Y147.586 E30.23613
G1 X94.092 Y148.28 E30.25954
G1 X93.894 Y148.955 E30.28294
G1 X93.622 Y149.604 E30.30635
G1 X93.277 Y150.218 E30.32977
G1 X92.866 Y150.789 E30.35317
G1 X92.435 Y151.267 E30.37458
G1 X92.318 Y151.384 E30.38008
G1 X91.793 Y151.853 E30.4035
G1 X91.218 Y152.259 E30.42691
G1 X90.6 Y152.597 E30.45033
G1 X89.949 Y152.864 E30.47374
G1 X89.271 Y153.054 E30.49716
G1 X88.576 Y153.167 E30.52058
G1 X87.934 Y153.2 E30.54196
G1 X63.168 Y153.2 E31.36568
G1 X62.465 Y153.16 E31.3891
G1 X61.771 Y153.041 E31.41252
G1 X61.096 Y152.843 E31.43591
G1 X60.447 Y152.571 E31.45932
G1 X59.833 Y152.226 E31.48274
G1 X59.262 Y151.815 E31.50614
G1 X58.784 Y151.384 E31.52755
G1 X58.667 Y151.267 E31.53305
G1 X58.198 Y150.742 E31.55647
G1 X57.792 Y150.167 E31.57988
G1 X57.454 Y149.549 E31.60331
G1 X57.187 Y148.898 E31.62671
G1 X56.997 Y148.22 E31.65013
G1 X56.884 Y147.525 E31.67355
G1 X56.851 Y146.883 E31.69493
G1 X56.851 Y47.117 E35.01316
G1 X56.891 Y46.414 E35.03658
G1 X57.01 Y45.72 E35.06
G1 X57.208 Y45.045 E35.0834
G1 X57.48 Y44.396 E35.1068
G1 X57.825 Y43.782 E35.13023
G1 X58.236 Y43.211 E35.15362
G1 X58.667 Y42.733 E35.17503
G1 X58.784 Y42.616 E35.18054
G1 X59.309 Y42.147 E35.20395
G1 X59.884 Y41.741 E35.22736
G1 X60.502 Y41.403 E35.25079
G1 X61.153 Y41.136 E35.27419
G1 X61.831 Y40.946 E35.29761
G1 X62.526 Y40.833 E35.32103
G1 X63.168 Y40.8 E35.34241
G1 X87.934 Y40.8 E36.16613
G1 X88.637 Y40.84 E36.18955
G1 X89.331 Y40.959 E36.21297
G1 X90.006 Y41.157 E36.23637
G1 X90.655 Y41.429 E36.25977
G1 X91.269 Y41.774 E36.2832
G1 X91.84 Y42.185 E36.3066
G1 X92.318 Y42.616 E36.328
G1 X92.435 Y42.733 E36.33351
G1 X92.904 Y43.258 E36.35692
G1 X93.31 Y43.833 E36.38033
G1 X93.648 Y44.451 E36.40376
G1 X93.915 Y45.102 E36.42716
G1 X94.105 Y45.78 E36.45058
G1 X94.218 Y46.475 E36.474
